ui/client/assets/img/collapse.svg

﻿<?xml version="1.0" encoding="utf-8"?>
<!DOCTYPE svg PUBLIC "-//W3C//DTD SVG 1.1//EN" "http://www.w3.org/Graphics/SVG/1.1/DTD/svg11.dtd">
<svg xmlns="http://www.w3.org/2000/svg" xmlns:xlink="http://www.w3.org/1999/xlink" version="1.1" baseProfile="full" style="background-color: #4A4A4A"
     width="76.0106" height="76.0106" viewBox="0 0 76.01 76.01" enable-background="new 0 0 76.01 76.01" xml:space="preserve">
	<path fill="#999999" fill-opacity="1" stroke-width="0.2" stroke-linejoin="round" d="M 38.0024,9.50133L 58.5858,17.418L 58.5858,22.168L 38.0024,30.0846L 17.4191,22.168L 17.4191,17.418L 38.0024,9.50133 Z M 36.4217,56.6121L 36.4217,39.5889L 28.504,45.9231L 28.504,41.1724L 38.0053,32.4629L 47.5066,41.1724L 47.5066,45.9231L 39.5889,39.5889L 39.5889,56.6121L 36.4217,56.6121 Z M 58.5858,53.8397L 58.5858,58.5897L 38.0024,66.5064L 17.4191,58.5897L 17.4191,53.8397L 34.8382,47.1401L 34.8382,51.7294L 23.7533,55.4244L 38.0053,61.3627L 52.2573,55.4244L 41.1724,51.7295L 41.1724,47.1423L 58.5858,53.8397 Z "/>
</svg>

<svg xmlns="http://www.w3.org/2000/svg" baseProfile="full" style="background-color:#4a4a4a" width="76.011" height="76.011" viewBox="0 0 76.01 76.01"><path fill="#999" d="M38.002 9.501l20.584 7.917v4.75l-20.584 7.917-20.583-7.917v-4.75l20.583-7.917zm-1.58 47.111V39.59l-7.918 6.334v-4.75l9.501-8.71 9.502 8.71v4.75l-7.918-6.334v17.023h-3.167zm22.164-2.772v4.75l-20.584 7.916L17.42 58.59v-4.75l17.42-6.7v4.59l-11.086 3.694 14.252 5.939 14.252-5.939-11.085-3.694v-4.588l17.414 6.698z"/></svg>
